T: Cliff's Edge
M: 4/4
L: 1/8
K: Dmaj
A>dc>d A>FD>F | E>^DG<E B2 e>=d | c>de>d c>AG>E | F>^EF>G (3ABA(3FG^G |A>dc>d A>FD>F | E>^DG<E B2 e>=d | c>eg>e c>A (3gfe | d2 D2 D2 :|^d>ec>A G>Eg>e | ^e>fd<A F2 a>f | g>ec>A ^G>A (3=GFE | D>E^E>F d2 c>d |^d>ec>A G>Eg>e | ^e>fd<A a2 b>a | e>^dg>e ^G>A (3=gfe | d2 D2 D2 :|
